assets/img/telegram.svg

<svg width="20" height="16" viewBox="0 0 20 16" fill="none" xmlns="http://www.w3.org/2000/svg">
<path fill-rule="evenodd" clip-rule="evenodd" d="M1.3749 6.8879C6.74359 4.62993 10.3236 3.14134 12.1148 2.42212C17.2292 0.36862 18.2919 0.0119045 18.9846 0.00012559C19.1369 -0.00246506 19.4776 0.0339819 19.6982 0.206816C19.8845 0.352754 19.9358 0.549895 19.9603 0.68826C19.9848 0.826626 20.0154 1.14183 19.9911 1.38811C19.714 4.1992 18.5147 11.021 17.9046 14.1694C17.6465 15.5017 17.1382 15.9484 16.6461 15.9921C15.5766 16.0871 14.7645 15.3098 13.7287 14.6543C12.1078 13.6287 11.1921 12.9902 9.61879 11.9893C7.80053 10.8327 8.97923 10.1969 10.0155 9.15799C10.2866 8.88609 14.9987 4.74868 15.0899 4.37335C15.1013 4.32641 15.1119 4.15143 15.0042 4.05904C14.8965 3.96664 14.7376 3.99824 14.6229 4.02337C14.4604 4.05898 11.871 5.71112 6.85486 8.97978C6.11988 9.46697 5.45416 9.70435 4.8577 9.69191C4.20015 9.6782 2.93528 9.33301 1.99498 9.03795C0.84166 8.67605 -0.074973 8.48471 0.00484519 7.87009C0.0464194 7.54996 0.503103 7.22256 1.3749 6.8879Z" fill="white"/>
</svg>

<svg xmlns="http://www.w3.org/2000/svg" width="20" height="16" fill="none" xmlns:v="https://vecta.io/nano"><path fill-rule="evenodd" d="M1.375 6.888l10.74-4.466L18.985 0c.152-.003.493.034.714.207.186.146.238.343.262.481a3.03 3.03 0 0 1 .031.7c-.277 2.811-1.476 9.633-2.087 12.781-.258 1.332-.766 1.779-1.258 1.823-1.07.095-1.882-.682-2.917-1.338l-4.11-2.665c-1.818-1.157-.64-1.792.397-2.831.271-.272 4.983-4.409 5.074-4.785.011-.047.022-.222-.086-.314s-.267-.061-.381-.036c-.162.036-2.752 1.688-7.768 4.956-.735.487-1.401.725-1.997.712-.658-.014-1.922-.359-2.863-.654C.842 8.676-.075 8.485.005 7.87c.042-.32.498-.648 1.37-.982z" fill="#fff"/></svg>
